X:1
T:Title
%%score { ( 1 4 ) | ( 2 3 ) }
L:1/8
M:2/2
K:Bb
V:1 treble nm="Grand Piano"
V:4 treble 
V:2 bass 
V:3 bass 
V:1
 z4 z2[Q:1/4=108] [DF]2 | [_D=E]2 [=DF]2 [DB]2 F2 | G6 [FG]2 | [=EG]2 [EG]2 [Gc]2 [GB]2 | %4
 [FA]6 [EF]2 | [Dd]2 [Fd]2 [Fc]2 [FA]2 | [FB]2 [Fc]2 [Fd]2 [Ge]2 | d2 c2 G2 A2 | [DB]8 | %9
 [GB]2 [GB]>[GB] [GB]2 [Gc]2 | [Fd]6 [FB]2 | [GB]3 [GB] [^FB]2 [Fc]2 | [Fd]8 | %13
 [Fd]2 [Fd]>[Fd] [D_Af]2 [FAd]2 | [EGB]2 [Gc]2 [Fd]2 [Ge]2 | d2 c>c G2 A2 | [DB]8 | B4 G2 B2 | %18
 F6 [FB]2 | G4 B4 | F6 [DF]2 | [EG]4 [FB]4 | [Fc]4 [Fd]4 | [Fc]8- | [Fc]4 z4 | [Ff]4 [Fd]2 [DFf]2 | %26
 [DFB]6 [B,FB]2 | G4 B4 | F6 F2 | B4 B4 | z4 c4 | [DB]8- |[M:3/4] [DB]4 z2 |] %33
V:2
 z4 z2 [B,,F,]2 | [B,,G,]2 [B,,F,]2 [B,,F,]2 [D,B,]2 | [E,B,E]6 [D,=B,]2 | %3
 [C,C]2 [C,C]2 [=E,C]2 [E,C]2 | [F,C]6 [F,A,]2 | [B,,B,]2 [B,,B,]2 [C,A,]2 [E,C]2 | %6
 [D,B,]2 [C,A,]2 [B,,B,]2 [E,B,]2 | [F,B,F]2 [F,A,F]2 [F,B,E]2 [F,CE]2 | [B,,B,]8 | %9
 [E,B,]2 [E,B,]>[E,B,] [E,B,]2 [E,A,]2 | [B,,B,]6 [D,B,]2 | [E,B,]3 [E,B,] [E,B,]2 [E,A,]2 | %12
 [B,,B,]8 | [B,,B,]2 [B,,B,]>[B,,B,] B,,2 B,,2 | z4 B,4 | %15
 [F,B,F]2 [F,A,F]>[F,A,F] [F,B,E]2 [F,CE]2 | [B,,B,]8 | [E,G,E]4 [E,B,E]2 [G,B,E]2 | %18
 [B,D]6 [D,B,]2 | [E,B,E]4 [G,B,E]4 | [B,D]6 [B,,B,]2 | [E,B,]4 [D,B,]4 | [C,A,]4 [B,,B,]4 | %23
 [F,A,]8- | [F,A,]4 z4 | [B,,D]4 [B,,B,]2 B,,2 | B,,6 D,2 | [B,E]4 [G,B,E]4 | [B,D]6 [D,B,]2 | %29
 [G,B,D]4 [G,B,E]4 | [F,B,F]4 .[F,A,F]4 | [B,,B,]8- |[M:3/4] [B,,B,]4 z2 |] %33
V:3
 x8 | x8 | x8 | x8 | x8 | x8 | x8 | x8 | x8 | x8 | x8 | x8 | x8 | x8 | E,2 [E,B,]2 D,2 C,2 | x8 | %16
 x8 | x8 | x8 | x8 | x8 | x8 | x8 | x8 | x8 | x8 | x8 | x8 | x8 | x8 | x8 | x8 |[M:3/4] x6 |] %33
V:4
 x8 | x8 | x8 | x8 | x8 | x8 | x8 | x8 | x8 | x8 | x8 | x8 | x8 | x8 | x8 | x8 | x8 | x8 | x8 | %19
 x8 | x8 | x8 | x8 | x8 | x8 | x8 | x8 | x8 | x8 | x8 | d4 z2 E2 | x8 |[M:3/4] x6 |] %33

